assets/imgs/template/icons/menu.svg

<?xml version="1.0" encoding="UTF-8"?>
<svg id="Layer_1" data-name="Layer 1" xmlns="http://www.w3.org/2000/svg" version="1.1" viewBox="0 0 24 24">
  <defs>
    <style>
      .cls-1 {
        fill: none;
        stroke: #fff;
        stroke-linecap: round;
        stroke-linejoin: round;
        stroke-width: 1.5px;
      }
    </style>
  </defs>
  <path class="cls-1" d="M4,4h2v2h-2v-2Z"/>
  <path class="cls-1" d="M4,18h2v2h-2v-2Z"/>
  <path class="cls-1" d="M18,4h2v2h-2v-2Z"/>
  <path class="cls-1" d="M18,11h2v2h-2v-2Z"/>
  <path class="cls-1" d="M11,11h2v2h-2v-2Z"/>
  <path class="cls-1" d="M4,11h2v2h-2v-2Z"/>
  <path class="cls-1" d="M11,4h2v2h-2v-2Z"/>
  <path class="cls-1" d="M11,18h2v2h-2v-2Z"/>
  <path class="cls-1" d="M18,18h2v2h-2v-2Z"/>
</svg>

<svg width="24" height="24" viewBox="0 0 24 24" fill="none" xmlns="http://www.w3.org/2000/svg">
<g clip-path="url(#clip0_818_11253)">
<path d="M4 4H6V6H4V4Z" stroke="black" stroke-width="1.5" stroke-linecap="round" stroke-linejoin="round"/>
<path d="M4 18H6V20H4V18Z" stroke="black" stroke-width="1.5" stroke-linecap="round" stroke-linejoin="round"/>
<path d="M18 4H20V6H18V4Z" stroke="black" stroke-width="1.5" stroke-linecap="round" stroke-linejoin="round"/>
<path d="M18 11H20V13H18V11Z" stroke="black" stroke-width="1.5" stroke-linecap="round" stroke-linejoin="round"/>
<path d="M11 11H13V13H11V11Z" stroke="black" stroke-width="1.5" stroke-linecap="round" stroke-linejoin="round"/>
<path d="M4 11H6V13H4V11Z" stroke="black" stroke-width="1.5" stroke-linecap="round" stroke-linejoin="round"/>
<path d="M11 4H13V6H11V4Z" stroke="black" stroke-width="1.5" stroke-linecap="round" stroke-linejoin="round"/>
<path d="M11 18H13V20H11V18Z" stroke="black" stroke-width="1.5" stroke-linecap="round" stroke-linejoin="round"/>
<path d="M18 18H20V20H18V18Z" stroke="black" stroke-width="1.5" stroke-linecap="round" stroke-linejoin="round"/>
</g>
<defs>
<clipPath id="clip0_818_11253">
<rect width="24" height="24" fill="white"/>
</clipPath>
</defs>
</svg>
